X:1<BR>
T:Cronin's Hornpipe<BR>
M:C|<BR>
L:1/8<BR>
R:Hornpipe<BR>
K:G<BR>
BA|GABd dBde|gage dega|bage dBGB|BAAG A2|!<BR>
BA|GABd dBde|gage dega|bage dBAB|G2 GF G2:|!<BR>
fg|afdB dfga|bged efga|bage dBGB|BAAG A2|!<BR>
BA|GABd dBde|gage dega|bage dBAB|G2 GF G2:|!<BR>
<BR>
